X:1
T:Japanese Maple(紅葉)
T:Japanese Maple(紅葉)
T:(piano solo)
T:Composer：Teiichi Okano(岡野貞一,1878-1941）
T:Arranger:K Kobayashi
T:Lyricist:Tatuyuki Takano(髙野辰之,1876-1947)
T:©K Kobayashi 2020
T:©K Kobayashi 2020
T:©K Kobayashi 2020
C:Teiichi Okano(岡野貞一)
Z:©K Kobayashi 2020
%%score { ( 1 2 ) | ( 3 4 ) }
L:1/8
Q:1/4=82
M:4/4
K:F
V:1 treble nm="Piano" snm="Pno."
V:2 treble 
V:3 bass 
V:4 bass 
V:1
!p! (fc'e'f' e'd'c'e' | f'c'be' f'd'bg) | (!arpeggio![Bf]2 c'b f_dcB | %3
w: |||
[Q:1/4=80] !arpeggio![CEA]4)[Q:1/4=56] !fermata![ec']4 ||[Q:1/4=82]!mp! (a2 gf g2 a2 | f4 c4) | %6
w: |あ き の ゆ う|ひ に|
 (f2 ef g2 c'2 | a2 gf g4) | (a2 gf g2 a2 | [df]4 [Fc]4) | (f2 ef g2 c'2 | a2 g2!>(! f2) z2!>)! | %12
w: て る ー や ま|も み ー じ|こ い も う す|い も|か ず ー あ る|な か に|
!p! (c2 AB c2 [Fd]2 | [Ac]4!<(! [FA]2) z2!<)! |!mp! c'2 d'c' a2 gf | g2 a2!<(! g2 (3Bdf!<)! | %16
w: ま つ を い ろ|ど る|か え ー で や ー|つ た は * * *|
 [_ec']2 [fd'][ec'] a2 g2 | [df]4!>(! [Fc]4!>)! |!mp! f2 ef a2 g2 | f4 z!p! cfa || z e'c'g ecAG | %21
w: や ま の ふ も|と の|す そ ー も よ|う * * *||
 !arpeggio![^FAc]2 !arpeggio![Acd]2 !arpeggio![cd^f]2 !arpeggio![dfa]2 || %22
w: |
[K:G]!mp! (b2 ag [fa]2 [gb]2 | g4 d4) | (g2 fg a2 d'2 | b2 ag a4) | (b2 ag a2 b2 | [eg]4 [Gd]4) | %28
w: た に の な が|れ に|ち り ー ゆ く|も み ー じ|な み に ゆ ら|れ て|
 (g2 fg a2 d'2 | b2 a2!>(! g2) (5:4:5z/ D/G/A/B/!>)! | [Bd]2 Bc [Gd]2 [Ge]2 | [Bd]4!<(! B2 z2!<)! | %32
w: は な ー れ て|よ っ て * * * *|あ か や き い|ろ の|
!mp! d2 ed B2 AG | [^C^DA]2 [CEB]2!<(! A4!<)! |!mf! [=Fd]2 [Ge][Fd] [EGB]2 [B,FA]2 | %35
w: い ろ ー さ ま ー|ざ ま に|み ず の う え|
 [EG]4!>(! [G,D]4!>)! |!mp! [EG]2 FG B2 A2 | G4 z DGB ||!p! (gd'f'g' f'e'd'f' | g'd'c'f' g'e'c'a) | %40
w: に も|お る ー に し|き * * *|||
 (!arpeggio![cg]2 d'c' g^d=dc |[Q:1/4=80] !arpeggio![DFB]8)[Q:1/4=70] | %42
w: ||
[Q:1/4=56]!pp! !arpeggio!!fermata![Bdgd']8 |] %43
w: |
V:2
 c4 c'4 | b4 f4 | x8 | x8 || c4 c4 | d4 A4 | d4 e4 | d4 e4 | c4 ^c4 | x8 | d4 d2 g2 | z deB A2 x2 | %12
 F6 x2 | x8 | g4 f2 c2 | =B4 _B2 x2 | x4 fd_ec | x8 | B4 c2 B2 | A4 x4 || x8 | x8 ||[K:G] d4 x4 | %23
 e4 B4 | e4 f4 | e4 f4 | d4 ^d4 | x8 | e4 z d z d | z efc B2 x2 | x8 | x8 | A4 G2 D2 | %33
 x4 [=CE]2 F2 | x8 | x8 | x4 D2 C2 | B,4 x4 || d4 d'4 | c'4 g4 | x8 | x8 | x8 |] %43
V:3
!ped! (F4!ped-up!!ped! E4)!ped-up! |!ped! (D4!ped-up! [A,F]4) | %2
!ped! !arpeggio![G,_DF]4 z4!ped-up! |!ped! !arpeggio!!fermata![C,B,]8!ped-up! || %4
!ped! (FAcA)!ped-up!!ped! (FAdA)!ped-up! |!ped! (DFBF)!ped-up!!ped! (A,FGF)!ped-up! | %6
 (G,DGD) (B,EGE) | (=B,FAF) (CEGD) | (F,CFC) (A,EGE) | (D,A,DA,) (F,A,CF) | (B,FcF BF G2) | %11
!ped! [G,F]2!ped-up!!ped! [CE]2!ped-up!!ped! (F,CFG)!ped-up! | %12
!ped! z (A,F,G, A,C!ped-up!!ped!B,D!ped-up! |!ped! FCA,C!ped-up!!ped! F)(G,!ped-up!A,B, | %14
 (A,)EGE) (DFAF) | (G,DFD CD F2) | (F,C_EG A2 [F,E]2) | (D,A,DC) (A,,F,G,C) | (G,DFD CD E2) | %19
!ped! (F,CGC!ped-up! F2) z2 ||!ped! A,,E, C6!ped-up! |!ped! [D,D]8!ped-up! || %22
[K:G]!ped! (G,B,DG!ped-up!!ped! B4)!ped-up! |!ped! (C,G,CE)!ped-up!!ped! F2 D2!ped-up! | %24
!ped! (B,,G,DE)!ped-up!!ped! F2 A2!ped-up! | (^CGBG)!ped! (DFAE)!ped-up! | %26
!ped! (G,B,DG!ped-up!!ped! B4)!ped-up! |!ped! (C,G,CE)!ped-up!!ped! B,2 D2!ped-up! | (CGdG cG A2) | %29
!ped! [A,G]2!ped-up!!ped! [DF]2!ped-up!!ped! G,4!ped-up! |!ped! G,,,G,,D,G, B,G,CG,!ped-up! | %31
!ped! B,G,DG,!ped-up!!ped! G(D!ped-up!B,G, |!ped! (B,,)F,A,F,)!ped-up!!ped! (E,G,B,G,)!ped-up! | %33
 (A,,E, A,2 E,2 A,,2) |!ped! (G,,D,E,A, C,2!ped-up! D,2) | %35
!ped! (E,,B,,E,D,)!ped-up! (B,,,G,,A,,D,) | (A,,E,G,E, D,E, F,2) | %37
!ped! (G,,D,A,D,!ped-up! G,2) D,2 ||!ped! (G4!ped-up!!ped! F4)!ped-up! |!ped! (E4!ped-up! [B,G]4) | %40
!ped! !arpeggio![A,^DG]4 z4!ped-up! |[K:bass]"^rit."!>(!!ped! G,,D,G,A, B,DGA!>)! | %42
 !fermata!G,,8!ped-up! |] %43
V:4
 x8 | x8 | x8 | x8 || x8 | x8 | x8 | x8 | x8 | x8 | x8 | x8 | x8 | x8 | x8 | x8 | x8 | x8 | x8 | %19
 x8 || x8 | x8 ||[K:G] x8 | x8 | x8 | x8 | x8 | x8 | x8 | x8 | x8 | x8 | x8 | x8 | x8 | x8 | x8 | %37
 x8 || x8 | x8 | x8 |[K:bass] G,,8- | x8 |] %43

